imgs/03-01-line1.svg

<svg xmlns="http://www.w3.org/2000/svg" width="640" height="750" viewBox="0 0 640 750"><path fill="#fff" d="M343.844 144.144l-2-.054c.073-2.642.121-5.309.144-8.002l2 .019c-.023 2.683-.071 5.387-.144 8.037m-.502 12.037l-1.996-.112c.148-2.638.273-5.302.371-7.994l2 .073c-.101 2.683-.226 5.385-.375 8.033m-.863 12.034l-1.992-.175c.229-2.629.434-5.285.612-7.971l1.996.133c-.178 2.677-.385 5.371-.616 8.013m-1.246 12.004l-1.985-.24c.316-2.619.606-5.269.868-7.95l1.99.196c-.262 2.671-.556 5.36-.873 7.994m-1.648 11.956l-1.975-.306c.406-2.61.785-5.25 1.138-7.921l1.983.261c-.352 2.664-.737 5.343-1.146 7.966m-2.068 11.894l-1.965-.379c.5-2.594.976-5.221 1.421-7.879l1.974.331c-.447 2.65-.928 5.316-1.43 7.927m-2.515 11.81l-1.948-.455c.601-2.573 1.173-5.179 1.717-7.821l1.959.404c-.542 2.635-1.124 5.283-1.728 7.872m-2.977 11.706l-1.93-.533c.704-2.546 1.379-5.127 2.025-7.746l1.941.481c-.642 2.611-1.33 5.234-2.036 7.798m-3.461 11.578l-1.904-.613c.811-2.514 1.594-5.064 2.346-7.654l1.921.56c-.752 2.582-1.546 5.173-2.363 7.707m-3.956 11.418l-1.875-.698c.919-2.473 1.811-4.985 2.675-7.538l1.894.642c-.861 2.544-1.767 5.098-2.694 7.594m-4.468 11.228l-1.84-.781c1.031-2.427 2.035-4.894 3.011-7.402l1.864.725c-.973 2.499-1.993 5.009-3.035 7.458m-4.996 11.022l-1.802-.869c1.148-2.379 2.269-4.8 3.362-7.26l1.827.811c-1.09 2.454-2.229 4.916-3.387 7.318m-5.523 10.763l-1.756-.956c1.264-2.321 2.502-4.686 3.712-7.092l1.788.898c-1.209 2.4-2.467 4.806-3.744 7.15m-6.052 10.473l-1.707-1.044c1.379-2.252 2.733-4.548 4.059-6.89l1.742.988c-1.324 2.333-2.701 4.671-4.094 6.946m-6.584 10.158l-1.65-1.131c1.496-2.181 2.967-4.406 4.413-6.679l1.688 1.073c-1.44 2.264-2.938 4.531-4.451 6.737m-7.097 9.802l-1.59-1.217c1.606-2.098 3.189-4.244 4.748-6.436l1.631 1.158c-1.554 2.185-3.164 4.37-4.789 6.495m-7.602 9.415l-1.523-1.296c1.714-2.013 3.408-4.073 5.079-6.179l1.566 1.242c-1.662 2.097-3.387 4.195-5.122 6.233m-8.09 9.008l-1.452-1.375c1.819-1.921 3.619-3.89 5.398-5.906l1.5 1.323c-1.771 2.008-3.602 4.012-5.446 5.958m-8.546 8.569l-1.379-1.448c1.915-1.823 3.814-3.696 5.698-5.615l1.429 1.4c-1.873 1.909-3.806 3.815-5.748 5.663m-8.981 8.112l-1.302-1.519c2.008-1.721 4.002-3.489 5.983-5.31l1.352 1.473c-1.967 1.808-3.998 3.61-6.033 5.356m-9.381 7.642l-1.223-1.583c2.092-1.617 4.173-3.281 6.246-4.998l1.275 1.54c-2.057 1.704-4.175 3.399-6.298 5.041m-9.752 7.16l-1.144-1.642c2.169-1.51 4.332-3.071 6.487-4.681l1.198 1.602c-2.139 1.599-4.34 3.186-6.541 4.721m-10.092 6.671l-1.063-1.696c2.237-1.402 4.475-2.854 6.71-4.356l1.117 1.658c-2.214 1.49-4.489 2.969-6.764 4.394m-10.396 6.179l-.981-1.743c2.298-1.294 4.602-2.638 6.91-4.034l1.036 1.712c-2.284 1.38-4.625 2.749-6.965 4.065m-10.667 5.686l-.9-1.787c2.35-1.184 4.712-2.419 7.085-3.707l.955 1.759c-2.342 1.27-4.744 2.527-7.14 3.735m-10.919 5.198l-.819-1.825c2.398-1.077 4.817-2.204 7.252-3.388l.873 1.8c-2.399 1.165-4.858 2.312-7.306 3.413m-11.127 4.706l-.738-1.858c2.432-.967 4.894-1.987 7.386-3.061l.792 1.836c-2.448 1.056-4.95 2.093-7.44 3.083m-11.325 4.223l-.658-1.89c2.46-.858 4.967-1.771 7.513-2.739l.712 1.869c-2.494.949-5.039 1.879-7.567 2.76m-11.489 3.733l-.579-1.915c2.479-.747 5.021-1.552 7.623-2.416l.631 1.896c-2.535.843-5.117 1.665-7.675 2.435m-11.65 3.246l-.496-1.938c2.481-.636 5.058-1.329 7.723-2.092l.55 1.923c-2.577.738-5.194 1.447-7.777 2.107m-11.773 2.736l-.409-1.958c2.454-.513 5.061-1.094 7.806-1.753l.467 1.944c-2.62.629-5.266 1.223-7.864 1.767m-11.9 2.189l-.313-1.975c2.335-.369 4.975-.825 7.881-1.386l.379 1.965c-2.687.519-5.36.988-7.947 1.396m-12.073 1.496l-.135-1.996c.01 0 2.869-.189 7.946-.89l.273 1.981c-5.09.702-7.957.896-8.075.904h-.009"/></svg>

<?xml version="1.0" encoding="utf-8"?>
<!-- Generator: Adobe Illustrator 16.0.0, SVG Export Plug-In . SVG Version: 6.00 Build 0)  -->
<!DOCTYPE svg PUBLIC "-//W3C//DTD SVG 1.1//EN" "http://www.w3.org/Graphics/SVG/1.1/DTD/svg11.dtd">
<svg version="1.1" id="图层_1" xmlns="http://www.w3.org/2000/svg" xmlns:xlink="http://www.w3.org/1999/xlink" x="0px" y="0px"
	 width="640px" height="750px" viewBox="0 0 640 750" enable-background="new 0 0 640 750" xml:space="preserve">
<path fill="#FFFFFF" d="M343.844,144.144l-2-0.054c0.073-2.642,0.121-5.309,0.144-8.002l2,0.019
	C343.965,138.79,343.917,141.494,343.844,144.144 M343.342,156.181l-1.996-0.112c0.148-2.638,0.273-5.302,0.371-7.994l2,0.073
	C343.616,150.831,343.491,153.533,343.342,156.181 M342.479,168.215l-1.992-0.175c0.229-2.629,0.434-5.285,0.612-7.971l1.996,0.133
	C342.917,162.879,342.71,165.573,342.479,168.215 M341.233,180.219l-1.985-0.24c0.316-2.619,0.606-5.269,0.868-7.95l1.99,0.196
	C341.844,174.896,341.55,177.585,341.233,180.219 M339.585,192.175l-1.975-0.306c0.406-2.61,0.785-5.25,1.138-7.921l1.983,0.261
	C340.379,186.873,339.994,189.552,339.585,192.175 M337.517,204.069l-1.965-0.379c0.5-2.594,0.976-5.221,1.421-7.879l1.974,0.331
	C338.5,198.792,338.019,201.458,337.517,204.069 M335.002,215.879l-1.948-0.455c0.601-2.573,1.173-5.179,1.717-7.821l1.959,0.404
	C336.188,210.642,335.606,213.29,335.002,215.879 M332.025,227.585l-1.93-0.533c0.704-2.546,1.379-5.127,2.025-7.746l1.941,0.481
	C333.419,222.398,332.731,225.021,332.025,227.585 M328.564,239.163l-1.904-0.613c0.811-2.514,1.594-5.064,2.346-7.654l1.921,0.56
	C330.175,234.038,329.381,236.629,328.564,239.163 M324.608,250.581l-1.875-0.698c0.919-2.473,1.811-4.985,2.675-7.538l1.894,0.642
	C326.441,245.531,325.535,248.085,324.608,250.581 M320.14,261.809l-1.84-0.781c1.031-2.427,2.035-4.894,3.011-7.402l1.864,0.725
	C322.202,256.85,321.182,259.36,320.14,261.809 M315.144,272.831l-1.802-0.869c1.148-2.379,2.269-4.8,3.362-7.26l1.827,0.811
	C317.441,267.967,316.302,270.429,315.144,272.831 M309.621,283.594l-1.756-0.956c1.264-2.321,2.502-4.686,3.712-7.092l1.788,0.898
	C312.156,278.844,310.898,281.25,309.621,283.594 M303.569,294.067l-1.707-1.044c1.379-2.252,2.733-4.548,4.059-6.89l1.742,0.988
	C306.339,289.454,304.962,291.792,303.569,294.067 M296.985,304.225l-1.65-1.131c1.496-2.181,2.967-4.406,4.413-6.679l1.688,1.073
	C299.996,299.752,298.498,302.019,296.985,304.225 M289.888,314.027l-1.59-1.217c1.606-2.098,3.189-4.244,4.748-6.436l1.631,1.158
	C293.123,309.717,291.513,311.902,289.888,314.027 M282.286,323.442l-1.523-1.296c1.714-2.013,3.408-4.073,5.079-6.179l1.566,1.242
	C285.746,319.306,284.021,321.404,282.286,323.442 M274.196,332.45l-1.452-1.375c1.819-1.921,3.619-3.89,5.398-5.906l1.5,1.323
	C277.871,328.5,276.04,330.504,274.196,332.45 M265.65,341.019l-1.379-1.448c1.915-1.823,3.814-3.696,5.698-5.615l1.429,1.4
	C269.525,337.265,267.592,339.171,265.65,341.019 M256.669,349.131l-1.302-1.519c2.008-1.721,4.002-3.489,5.983-5.31l1.352,1.473
	C260.735,345.583,258.704,347.385,256.669,349.131 M247.288,356.773l-1.223-1.583c2.092-1.617,4.173-3.281,6.246-4.998l1.275,1.54
	C251.529,353.436,249.411,355.131,247.288,356.773 M237.536,363.933l-1.144-1.642c2.169-1.51,4.332-3.071,6.487-4.681l1.198,1.602
	C241.938,360.811,239.737,362.398,237.536,363.933 M227.444,370.604l-1.063-1.696c2.237-1.402,4.475-2.854,6.71-4.356l1.117,1.658
	C231.994,367.7,229.719,369.179,227.444,370.604 M217.048,376.783l-0.981-1.743c2.298-1.294,4.602-2.638,6.91-4.034l1.036,1.712
	C221.729,374.098,219.388,375.467,217.048,376.783 M206.381,382.469l-0.9-1.787c2.35-1.184,4.712-2.419,7.085-3.707l0.955,1.759
	C211.179,380.004,208.777,381.261,206.381,382.469 M195.462,387.667l-0.819-1.825c2.398-1.077,4.817-2.204,7.252-3.388l0.873,1.8
	C200.369,385.419,197.91,386.566,195.462,387.667 M184.335,392.373l-0.738-1.858c2.432-0.967,4.894-1.987,7.386-3.061l0.792,1.836
	C189.327,390.346,186.825,391.383,184.335,392.373 M173.01,396.596l-0.658-1.89c2.46-0.858,4.967-1.771,7.513-2.739l0.712,1.869
	C178.083,394.785,175.538,395.715,173.01,396.596 M161.521,400.329l-0.579-1.915c2.479-0.747,5.021-1.552,7.623-2.416l0.631,1.896
	C166.661,398.737,164.079,399.559,161.521,400.329 M149.871,403.575l-0.496-1.938c2.481-0.636,5.058-1.329,7.723-2.092l0.55,1.923
	C155.071,402.206,152.454,402.915,149.871,403.575 M138.098,406.311l-0.409-1.958c2.454-0.513,5.061-1.094,7.806-1.753l0.467,1.944
	C143.342,405.173,140.696,405.767,138.098,406.311 M126.198,408.5l-0.313-1.975c2.335-0.369,4.975-0.825,7.881-1.386l0.379,1.965
	C131.458,407.623,128.785,408.092,126.198,408.5 M114.125,409.996L113.99,408c0.01,0,2.869-0.189,7.946-0.89l0.273,1.981
	c-5.09,0.702-7.957,0.896-8.075,0.904H114.125"/>
</svg>
